!!!!SEGMENT: pl-lzu--m-15111--001-002_noskowski-zygmunt--spiewnik-dla-dzieci-op-34-2-slizgawka.krn
!!!cenid: 18xx:4699
!!!COM: Noskowski, Zygmunt
!!!COM-rismID: pe106604
!!!CDT: 1846/05/02-1909/07/23
!!!CNT: Polish
!!!GTL: Śpiewnik dla dzieci, op. 34
!!!OTL: 2. Ślizgawka
!!!OMV: 002
!!!PDT: 1890
!!!AGN: Secular; Song; Children
!!!YEC: Copyright 2022 Narodowy Instytut Fryderyka Chopina (https://polishscores.org)
!!!YEM: License CC-BY-4.0 (https://creativecommons.org/licenses/by/4.0)
!!!SMS-siglum: PL-LŹu
!!!SMS-shelfmark: M 15111
!!!SMS-variant:
!!!SMS-altvar:
!!!SMS-shelfwork: 001-002 G
!!!NIFC-rismSourceID: 1001234040
!!!NIFC-rismChildID: 1001234040
!!!NIFC-islandoraID: pl-lzu:5455
!!!URL-pdf-islandora: https://repozytorium.nifc.pl/islandora/object/pl-lzu%3A5455/datastream/PDF/view
!!!URL-scan: https://polish.musicsources.pl/pl/lokalizacje/galeria/druki-muzyczne/23228/9 @EN{Scan on Polish Music Sources Website} @PL{Skany w portalu Dziedzictwo Muzyki Polskiej w otwartym dostępie}
!!!IIIF:
!!!ONB-nifc:
!!!AIN: 1 piano 1 vox
!!!key: A
!!!OMD: Allegretto vivo.
**kern	**kern	**dynam	**kern	**text	**text	**text	**dynam
*part2	*part2	*part2	*part1	*part1	*part1	*part1	*part1
*staff3	*staff2	*staf2,3	*staff1	*staff1	*staff1	*staff1	*staf1
*I"[Piano]	*I"[Piano]	*	*I"[Voice]	*	*	*	*
*I'pf	*I'pf	*	*I'V	*	*	*	*
*Ipiano	*Ipiano	*	*Ivox	*	*	*	*
*ICklav	*ICklav	*	*ICvox	*	*	*	*
*IGacomp	*IGacomp	*	*IGsolo	*	*	*	*
*>[A,A,A,B]	*>[A,A,A,B]	*>[A,A,A,B]	*>[A,A,A,B]	*>[A,A,A,B]	*>[A,A,A,B]	*>[A,A,A,B]	*>[A,A,A,B]
*>A	*>A	*>A	*>A	*>A	*>A	*>A	*>A
*clefF4	*clefG2	*	*clefG2	*	*	*	*
*k[f#c#g#]	*k[f#c#g#]	*	*k[f#c#g#]	*	*	*	*
*A:	*A:	*	*A:	*	*	*	*
*M6/8	*M6/8	*	*M6/8	*	*	*	*
=1	=1	=1	=1	=1	=1	=1	=1
!	!LO:TX:a:t=[segno]	!	!	!	!	!	!
!	!LO:TX:a:i:t=Dosyć prędko.	!	!	!	!	!	!
8A\L 8c#	(16d#X/LL	p	2.r	.	.	.	.
.	16e/	.	.	.	.	.	.
8A\ 8c#	16f#/	.	.	.	.	.	.
.	16g#/J)	.	.	.	.	.	.
8A\J 8e	8a'/J	.	.	.	.	.	.
8An\L 8d 8e	(16a#X\LL	<	.	.	.	.	.
.	16b\	.	.	.	.	.	.
8A\ 8d 8e	16cc#\	.	.	.	.	.	.
.	16dd\J)	.	.	.	.	.	.
8A\J 8d 8e	8ee'\J	[[	.	.	.	.	.
=2	=2	=2	=2	=2	=2	=2	=2
8A\L 8c# 8e	(16dd#X\LL	.	2.r	.	.	.	.
.	16ee\	.	.	.	.	.	.
8A\ 8c# 8e	16ff#\	.	.	.	.	.	.
.	16gg#\J)	.	.	.	.	.	.
8A\J 8c# 8e	8aa'\J	.	.	.	.	.	.
8A\L 8B 8e	(16gg#\LL	f	.	.	.	.	.
.	16ff#\	.	.	.	.	.	.
8A\ 8B 8e	16ee\	.	.	.	.	.	.
.	16dd#\J)	.	.	.	.	.	.
8A\J 8B 8e	8ddn'\J	.	.	.	.	.	.
=3	=3	=3	=3	=3	=3	=3	=3
8A\L 8c# 8e	(16cc#\LL	.	2.r	.	.	.	.
.	16dd\	.	.	.	.	.	.
8A\ 8c# 8e	16dd#X\	.	.	.	.	.	.
.	16ee\J)	.	.	.	.	.	.
8A\J 8c# 8e	8ff#'\J	>	.	.	.	.	.
8A\L 8d 8e	(16ee\LL	.	.	.	.	.	.
.	16dd#\	.	.	.	.	.	.
8A\ 8d 8e	16ddn\	.	.	.	.	.	.
.	16cc#\J)	.	.	.	.	.	.
8A\J 8d 8e	8b'\J	]	.	.	.	.	.
!!LO:LB:g=original
=4	=4	=4	=4	=4	=4	=4	=4
8A\L 8c# 8e	(16a/LL	p	2.r	.	.	.	.
.	16b/	.	.	.	.	.	.
8A\ 8c#	16a/	.	.	.	.	.	.
.	16f#/	.	.	.	.	.	.
8A\J 8c#	16e/	.	.	.	.	.	.
.	16f#/JJ	.	.	.	.	.	.
8G#\L 8d	16e/LL	.	.	.	.	.	.
.	16f#/	.	.	.	.	.	.
8G#\ 8d	16e/	.	.	.	.	.	.
.	16f#/	.	.	.	.	.	.
8G#\J 8d	16e/	.	.	.	.	.	.
.	16f#/JJ)	.	.	.	.	.	.
=5	=5	=5	=5	=5	=5	=5	=5
*	*	*	*	*v:1	*v:2	*v:3	*
!	!	!	!	!	!	!	!LO:DY:a
8A\L 8c#	(16e/LL	.	(16e/LL	Ró-	Gu-	Jak	p
.	16f#/JJ	.	16f#/JJ	.	.	.	.
8A\ 8c#	4e/)	.	4e/)	-wno,	-za	po-	.
8A\J 8c#	.	.	.	.	.	.	.
8A\L 8d	(16b\LL	.	(16b\LL	ró-	na-	-wie-	.
.	16cc#\JJ	.	16cc#\JJ	.	.	.	.
8A\ 8d	4b\)	.	4b\)	-wno,	-bić	-dzą,	.
8A\J 8d	.	.	.	.	.	.	.
=6	=6	=6	=6	=6	=6	=6	=6
8A\L 8c#	4a/	.	4a/	jak	strach	tak	.
8A\ 8c#	.	.	.	.	.	.	.
8A\J 8e	8cc#\	.	8cc#\	po	nie	po-	.
8A\L 8c#	4ee\	.	4ee\	sto-	du-	-wie-	.
8A\ 8c#	.	.	.	.	.	.	.
8A\J 8e	8cc#\	.	8cc#,\	-le,	-ży	-dzą,	.
!!LO:LB:g=original
=7	=7	=7	=7	=7	=7	=7	=7
*	*	*	*	*v:1	*v:2	*v:3	*
8G#\L	4b/	.	4b/	Na	Nic	Pój-	.
8d\ 8e	.	.	.	.	.	.	.
8F#\J	8a/	.	8a/	ły-	nie	-dzie	.
4.E\	8g#/L	.	(8g#/L	-żew-	bę-	na-	.
.	8d/ 8f#	.	8f#/J)	.	.	.	.
.	8d/J 8e	.	8e/	-kach	-dzie,	-zwa	.
=8	=8	=8	=8	=8	=8	=8	=8
2.A\	8cc#/L	.	2.cc#\	w dal...	nic.	w świat,	.
.	8c#/ 8e	.	.	.	.	.	.
.	8c#/J 8f#	.	.	.	.	.	.
.	8c#/L 8e	.	.	.	.	.	.
.	8c#/ 8f#	.	.	.	.	.	.
.	8c#/J 8e	.	.	.	.	.	.
=9	=9	=9	=9	=9	=9	=9	=9
8G#\L	(16b\LL	.	(16b\LL	Choć	A	Niech	.
.	16cc#\JJ	.	16cc#\JJ	.	.	.	.
8c#\ 8e#X	4b\)	.	4b\)	wy-	gdy	za	.
8c#\J 8e#	.	.	.	.	.	.	.
8F#\L	(16a/LL	.	(16a/LL	-sko-	chło-	pie-	.
.	16b/JJ	.	16b/JJ	.	.	.	.
8c#\ 8f#	4a/)	.	4a/)	-czy	-piec	-cem	.
8c#\J 8f#	.	.	.	.	.	.	.
=10	=10	=10	=10	=10	=10	=10	=10
4.E#X\	8g#/L	.	4g#/	guz	za-	tchó-	.
.	8c#/ 8g#	.	.	.	.	.	.
.	8c#/J 8g# 8cc#	.	8cc#\	na	-wsze	-rze	.
4F#\	8c#/L 8a	.	8a/	czo-	tchó-	sie-	.
.	8B/ 8c# 8g#	.	8g#,/	-le,	-rzy,	-dzą,	.
8D\	8A/J 8d 8f#	.	8f#/	Nie	Po-	A	.
!!LO:PB:g=original
=11	=11	=11	=11	=11	=11	=11	=11
*	*	*	*	*v:1	*v:2	*v:3	*
4.C#/	8A/L 8en	.	(>4e/	bę-	-wie-	ja	.
.	8A/ 8e	.	.	.	.	.	.
.	8A/J 8e 8a	.	8a/)	.	.	.	.
4BB/	8A/L 8d 8f#	.	4f#/	-dzie	-dzą,	je-	.
.	8A/ 8d 8f#	.	.	.	.	.	.
8EE/	8B/J 8d 8g#	.	8g#/	mi	że	-stem	.
=12	=12	=12	=12	=12	=12	=12	=12
2.AA/	8A/L 8c# 8a	.	[>4.a/	żal!	fryc!	chwat!	.
.	8A/ 8c# 8a	.	.	.	.	.	.
.	8A/J 8c# 8a	.	.	.	.	.	.
.	8A/L 8c# 8a	.	4a/]	.	.	.	.
.	8A/ 8c# 8a	.	.	.	.	.	.
.	8A/J 8c# 8a	.	8r	.	.	.	.
!	!LO:TX:a:rj:t=[segno]	!	!	!	!	!	!
=13:|!	=13:|!	=13:|!	=13:|!	=13:|!	=13:|!	=13:|!	=13:|!
*>B	*>B	*>B	*>B	*>B	*>B	*>B	*>B
!	!LO:TX:a:i:t=D. S.	!	!	!	!	!	!
4AA/	4A/ 4c# 4a	.	2.r	.	.	.	.
8r	8r	.	.	.	.	.	.
4D\	4A/ 4d 4f#	.	.	.	.	.	.
8r	8r	.	.	.	.	.	.
=14	=14	=14	=14	=14	=14	=14	=14
[<4.AA\ [<4.E	[<4.A/ [>4.c# [>4.a	.	2.r	.	.	.	.
4AA\] 4E]	4A/] 4c#] 4a]	.	.	.	.	.	.
8r	8r	.	.	.	.	.	.
==	==	==	==	==	==	==	==
*-	*-	*-	*-	*-	*-	*-	*-
!!!system-decoration: p1{p2}
!!!RDF**kern: > = above
!!!RDF**kern: < = below
!!!ENC: Andrzej Gręziak
!!!END: 2025-03-03
!!!ENC: Marta Lawrence
!!!END: 2025-03-18
